svg/solid/bxs-to-top.svg

<svg xmlns="http://www.w3.org/2000/svg" width="24" height="24"><path d="M5 15h4v6h6v-6h4l-7-8zM4 3h16v2H4z"/></svg>

<svg xmlns="http://www.w3.org/2000/svg" width="24" height="24" viewBox="0 0 24 24"><path d="M5 15L9 15 9 21 15 21 15 15 19 15 12 7zM4 3H20V5H4z"/></svg>
